svgs/solid/square-info.svg

<svg xmlns="http://www.w3.org/2000/svg" viewBox="0 0 448 512"><!--! Font Awesome Pro 6.1.2 by @fontawesome - https://fontawesome.com License - https://fontawesome.com/license (Commercial License) Copyright 2022 Fonticons, Inc. --><path d="M384 32H64C28.65 32 0 60.65 0 96v320c0 35.34 28.65 64 64 64h320c35.35 0 64-28.66 64-64V96C448 60.65 419.3 32 384 32zM224 128c17.67 0 32 14.33 32 32c0 17.67-14.33 32-32 32S192 177.7 192 160C192 142.3 206.3 128 224 128zM264 384h-80C170.8 384 160 373.3 160 360s10.75-24 24-24h16v-64H192c-13.25 0-24-10.75-24-24S178.8 224 192 224h32c13.25 0 24 10.75 24 24v88h16c13.25 0 24 10.75 24 24S277.3 384 264 384z"/></svg>

<svg xmlns="http://www.w3.org/2000/svg" viewBox="0 0 448 512"><!--! Font Awesome Pro 6.2.0 by @fontawesome - https://fontawesome.com License - https://fontawesome.com/license (Commercial License) Copyright 2022 Fonticons, Inc. --><path d="M64 32C28.7 32 0 60.7 0 96V416c0 35.3 28.7 64 64 64H384c35.3 0 64-28.7 64-64V96c0-35.3-28.7-64-64-64H64zM184 336h24V272H184c-13.3 0-24-10.7-24-24s10.7-24 24-24h48c13.3 0 24 10.7 24 24v88h8c13.3 0 24 10.7 24 24s-10.7 24-24 24H184c-13.3 0-24-10.7-24-24s10.7-24 24-24zm40-144c-17.7 0-32-14.3-32-32s14.3-32 32-32s32 14.3 32 32s-14.3 32-32 32z"/></svg>
